svgs/sharp-light/dagger.svg

<svg xmlns="http://www.w3.org/2000/svg" viewBox="0 0 384 512"><!--! Font Awesome Pro 6.6.0 by @fontawesome - https://fontawesome.com License - https://fontawesome.com/license (Commercial License) Copyright 2024 Fonticons, Inc. --><path d="M208 0l0 16 0 112 32 0 32 0 32 0 64 0 16 0 0 16 0 32c0 26.5-21.5 48-48 48s-48-21.5-48-48l0-16-16 0-32 0-32 0-32 0-32 0-32 0-16 0 0 16c0 26.5-21.5 48-48 48s-48-21.5-48-48l0-32 0-16 16 0 64 0 32 0 32 0 32 0 0-112 0-16 32 0zM64 160l-32 0 0 16c0 8.8 7.2 16 16 16s16-7.2 16-16l0-16zm256 0l0 16c0 8.8 7.2 16 16 16s16-7.2 16-16l0-16-32 0zM144 404.4L192 462l48-57.6L240 192l32 0 0 224-59.2 71L192 512l-20.8-25L112 416l0-224 32 0 0 212.4z"/></svg>

<svg xmlns="http://www.w3.org/2000/svg" viewBox="0 0 384 512"><!--! Font Awesome Pro 6.4.0 by @fontawesome - https://fontawesome.com License - https://fontawesome.com/license (Commercial License) Copyright 2023 Fonticons, Inc. --><path d="M208 0V16 128h32 32 32 64 16v16 32c0 26.5-21.5 48-48 48s-48-21.5-48-48V160H272 240 208 176 144 112 96v16c0 26.5-21.5 48-48 48s-48-21.5-48-48V144 128H16 80h32 32 32V16 0h32zM64 160H32v16c0 8.8 7.2 16 16 16s16-7.2 16-16V160zm256 0v16c0 8.8 7.2 16 16 16s16-7.2 16-16V160H320zM144 404.4L192 462l48-57.6V192h32V416l-59.2 71L192 512l-20.8-25L112 416V192h32V404.4z"/></svg>
